X: 48
M: 6/8
L: 1/8
K: G
|: d |\
a2d (c'2b) | {b}a2g f2g | a2d c'2b | (Tag).f g2d |\
ec'e cec | dbd BdB | c2A TG2F | G3- G2 :|
|: B |\
{a}g2f {g}f2e | {f}e2d {e}d2c | (B>c).d Tc2B | A2A A2 :|
|: d |\
=f2f- fdB | c2c c2e | g2g- ge^c | d2d d2b |\
c'2b Ta2g | c'2b Ta2g | ec'b agf | g2g g2 :|


